X: 22865
T: Lark In The Morning, The
R: jig
M: 6/8
K: Dmajor
|:"D"AF"d"A AF"d"A|"G"BG"g"B "A"Bd"a"B|"D"AF"d"A Ad"d"e|"G"fe"g"d "A"Bd"a"B|
"D"AF"d"A AF"d"A|"G"BG"g"B Bd"g"B|"D"de"d"f af"d"e|"G"fd"g"B "A"BA"a"B:|
|:"D"de"d"f af"d"a|"G"ba"g"f "A"af"a"e|"D"de"d"f af"d"e|"G"fd"g"B "A"BA"a"B|
"D"de"d"f af"d"a|ba"d"f a2"d"f|"G"(g2"g"g) "D"fg"d"f|"A"ed"a"B BA"a"B:|
|:"D"d2"d"f fe"d"f|fe"d"f fe"d"f|"D"d2"d"f fe"d"f|"G"ed"g"B "A"BA"a"B|
"D"d2"d"f fe"d"f|fe"d"f fe"d"f|"G"(g2"g"g) "D"fg"d"f|"A"ed"a"B BA"a"B:|
|:"D"Ad"d"d fd"d"d|"G"ed"g"e fd"A"B|"D"Ad"d"d fd"d"d|"G"ed"g"B "A"BAF|
"D"Ad"d"d fd"d"d|ed"d"e (f2"d"f)|"G"(g2"g"g) "D"fg"d"f|"A"ed"a"B BA"a"B:|

